**kern
*clefG2
*k[]
*M2/4
=1
*^
4cc 4ee	4g
4dd 4ff	4a
=2	=2
4ee 4gg	4b
4ff 4aa	4cc
=3	=3
4ee 4gg	4b
4dd 4ff	4a
=4	=4
2cc 2ee	2g
=5||	=5||
4cc	4e 4g
4dd	4f 4a
=6	=6
4ee	4g 4b
4ff	4a 4cc
=7	=7
4ee	4g 4b
4dd	4f 4a
=8	=8
2cc	2e 2g
*v	*v
==
*-
!!!system-decoration: [(s1
